src/Widgets/DataFormSubmitButtonWidget/thumbnail.svg

<svg viewBox="0 0 150 100" fill="none" xmlns="http://www.w3.org/2000/svg">
<g id="dataform-submit">
<path id="Rectangle 1" d="M16 15C16 12.7909 17.7909 11 20 11H131C132.657 11 134 12.3431 134 14V86C134 87.6569 132.657 89 131 89H19C17.3431 89 16 87.6569 16 86V15Z" stroke="#AAAAAA" stroke-width="2" stroke-linecap="round" stroke-dasharray="5 5"/>
<g id="Badge">
<g clip-path="url(#clip0_5_47)">
<rect x="23" y="18" width="67" height="13" rx="6.5" fill="#FF9F00"/>
<path id="DATA FORM" d="M28.7 28.5V21.3H31.03C31.0867 21.3 31.2033 21.3017 31.38 21.305C31.5567 21.3083 31.7267 21.32 31.89 21.34C32.47 21.41 32.9617 21.6117 33.365 21.945C33.7683 22.2783 34.075 22.7017 34.285 23.215C34.495 23.7283 34.6 24.29 34.6 24.9C34.6 25.51 34.495 26.0717 34.285 26.585C34.075 27.0983 33.7683 27.5217 33.365 27.855C32.9617 28.1883 32.47 28.39 31.89 28.46C31.7267 28.48 31.5567 28.4917 31.38 28.495C31.2033 28.4983 31.0867 28.5 31.03 28.5H28.7ZM30.08 27.22H31.03C31.12 27.22 31.2417 27.2183 31.395 27.215C31.5483 27.2083 31.6867 27.1933 31.81 27.17C32.1233 27.1067 32.3783 26.96 32.575 26.73C32.775 26.5 32.9217 26.2233 33.015 25.9C33.1117 25.5767 33.16 25.2433 33.16 24.9C33.16 24.54 33.11 24.1983 33.01 23.875C32.9133 23.5517 32.765 23.2783 32.565 23.055C32.365 22.8317 32.1133 22.69 31.81 22.63C31.6867 22.6033 31.5483 22.5883 31.395 22.585C31.2417 22.5817 31.12 22.58 31.03 22.58H30.08V27.22ZM35.1043 28.5L37.3043 21.3H39.3343L41.5343 28.5H40.1343L38.1743 22.15H38.4343L36.5043 28.5H35.1043ZM36.4243 27V25.73H40.2243V27H36.4243ZM43.5048 28.5V22.57H41.2348V21.3H47.1348V22.57H44.8648V28.5H43.5048ZM47.243 28.5L49.443 21.3H51.473L53.673 28.5H52.273L50.313 22.15H50.573L48.643 28.5H47.243ZM48.563 27V25.73H52.363V27H48.563ZM56.5711 28.5V21.3H60.9711V22.66H57.9311V24.22H60.3711V25.58H57.9311V28.5H56.5711ZM64.9638 28.65C64.2438 28.65 63.6222 28.4933 63.0988 28.18C62.5788 27.8667 62.1772 27.4283 61.8938 26.865C61.6138 26.3017 61.4738 25.6467 61.4738 24.9C61.4738 24.1533 61.6138 23.4983 61.8938 22.935C62.1772 22.3717 62.5788 21.9333 63.0988 21.62C63.6222 21.3067 64.2438 21.15 64.9638 21.15C65.6838 21.15 66.3038 21.3067 66.8238 21.62C67.3472 21.9333 67.7488 22.3717 68.0288 22.935C68.3122 23.4983 68.4538 24.1533 68.4538 24.9C68.4538 25.6467 68.3122 26.3017 68.0288 26.865C67.7488 27.4283 67.3472 27.8667 66.8238 28.18C66.3038 28.4933 65.6838 28.65 64.9638 28.65ZM64.9638 27.37C65.4205 27.3767 65.8005 27.2783 66.1038 27.075C66.4072 26.8717 66.6338 26.5833 66.7838 26.21C66.9372 25.8367 67.0138 25.4 67.0138 24.9C67.0138 24.4 66.9372 23.9667 66.7838 23.6C66.6338 23.2333 66.4072 22.9483 66.1038 22.745C65.8005 22.5417 65.4205 22.4367 64.9638 22.43C64.5072 22.4233 64.1272 22.5217 63.8238 22.725C63.5205 22.9283 63.2922 23.2167 63.1388 23.59C62.9888 23.9633 62.9138 24.4 62.9138 24.9C62.9138 25.4 62.9888 25.8333 63.1388 26.2C63.2922 26.5667 63.5205 26.8517 63.8238 27.055C64.1272 27.2583 64.5072 27.3633 64.9638 27.37ZM69.452 28.5V21.3H72.492C72.562 21.3 72.6553 21.3033 72.772 21.31C72.892 21.3133 72.9986 21.3233 73.092 21.34C73.522 21.4067 73.8736 21.5483 74.147 21.765C74.4236 21.9817 74.627 22.255 74.757 22.585C74.887 22.9117 74.952 23.2767 74.952 23.68C74.952 24.2833 74.802 24.8 74.502 25.23C74.202 25.6567 73.732 25.92 73.092 26.02L72.492 26.06H70.812V28.5H69.452ZM73.512 28.5L72.092 25.57L73.492 25.3L75.052 28.5H73.512ZM70.812 24.79H72.432C72.502 24.79 72.5786 24.7867 72.662 24.78C72.7453 24.7733 72.822 24.76 72.892 24.74C73.0753 24.69 73.217 24.6067 73.317 24.49C73.417 24.37 73.4853 24.2383 73.522 24.095C73.562 23.9483 73.582 23.81 73.582 23.68C73.582 23.55 73.562 23.4133 73.522 23.27C73.4853 23.1233 73.417 22.9917 73.317 22.875C73.217 22.755 73.0753 22.67 72.892 22.62C72.822 22.6 72.7453 22.5867 72.662 22.58C72.5786 22.5733 72.502 22.57 72.432 22.57H70.812V24.79ZM76.1512 28.5V21.3H77.3712L79.7512 26.08L82.1312 21.3H83.3512V28.5H82.0812V24.2L79.9912 28.5H79.5112L77.4212 24.2V28.5H76.1512Z" fill="white"/>
</g>
</g>
<g id="Group" opacity="0.75">
<path id="Vector" d="M124.8 61H26C24.8954 61 24 61.8954 24 63V78.92C24 80.0246 24.8954 80.92 26 80.92H124.8C125.905 80.92 126.8 80.0246 126.8 78.92V63C126.8 61.8954 125.905 61 124.8 61Z" fill="#AAAAAA"/>
<path id="Vector_2" d="M124.8 62C125.35 62 125.8 62.45 125.8 63V78.92C125.8 79.47 125.35 79.92 124.8 79.92H26C25.45 79.92 25 79.47 25 78.92V63C25 62.45 25.45 62 26 62H124.8ZM124.8 60H26C24.34 60 23 61.34 23 63V78.92C23 80.58 24.34 81.92 26 81.92H124.8C126.46 81.92 127.8 80.58 127.8 78.92V63C127.8 61.34 126.46 60 124.8 60Z" fill="#AAAAAA"/>
</g>
<path id="Submit" d="M57.104 75.18C56.464 75.18 55.886 75.068 55.37 74.844C54.858 74.616 54.436 74.292 54.104 73.872C53.776 73.448 53.568 72.944 53.48 72.36L55.184 72.108C55.304 72.604 55.552 72.986 55.928 73.254C56.304 73.522 56.732 73.656 57.212 73.656C57.48 73.656 57.74 73.614 57.992 73.53C58.244 73.446 58.45 73.322 58.61 73.158C58.774 72.994 58.856 72.792 58.856 72.552C58.856 72.464 58.842 72.38 58.814 72.3C58.79 72.216 58.748 72.138 58.688 72.066C58.628 71.994 58.542 71.926 58.43 71.862C58.322 71.798 58.184 71.74 58.016 71.688L55.772 71.028C55.604 70.98 55.408 70.912 55.184 70.824C54.964 70.736 54.75 70.61 54.542 70.446C54.334 70.282 54.16 70.066 54.02 69.798C53.884 69.526 53.816 69.184 53.816 68.772C53.816 68.192 53.962 67.71 54.254 67.326C54.546 66.942 54.936 66.656 55.424 66.468C55.912 66.28 56.452 66.188 57.044 66.192C57.64 66.2 58.172 66.302 58.64 66.498C59.108 66.694 59.5 66.98 59.816 67.356C60.132 67.728 60.36 68.184 60.5 68.724L58.736 69.024C58.672 68.744 58.554 68.508 58.382 68.316C58.21 68.124 58.004 67.978 57.764 67.878C57.528 67.778 57.28 67.724 57.02 67.716C56.764 67.708 56.522 67.744 56.294 67.824C56.07 67.9 55.886 68.012 55.742 68.16C55.602 68.308 55.532 68.484 55.532 68.688C55.532 68.876 55.59 69.03 55.706 69.15C55.822 69.266 55.968 69.36 56.144 69.432C56.32 69.504 56.5 69.564 56.684 69.612L58.184 70.02C58.408 70.08 58.656 70.16 58.928 70.26C59.2 70.356 59.46 70.492 59.708 70.668C59.96 70.84 60.166 71.068 60.326 71.352C60.49 71.636 60.572 71.996 60.572 72.432C60.572 72.896 60.474 73.302 60.278 73.65C60.086 73.994 59.826 74.28 59.498 74.508C59.17 74.732 58.798 74.9 58.382 75.012C57.97 75.124 57.544 75.18 57.104 75.18ZM64.3028 75.192C63.7948 75.192 63.3808 75.106 63.0608 74.934C62.7408 74.762 62.4908 74.544 62.3108 74.28C62.1348 74.016 62.0088 73.742 61.9328 73.458C61.8568 73.17 61.8108 72.908 61.7948 72.672C61.7788 72.436 61.7708 72.264 61.7708 72.156V68.52H63.4268V71.58C63.4268 71.728 63.4348 71.918 63.4508 72.15C63.4668 72.378 63.5168 72.608 63.6008 72.84C63.6848 73.072 63.8208 73.266 64.0088 73.422C64.2008 73.578 64.4708 73.656 64.8188 73.656C64.9588 73.656 65.1088 73.634 65.2688 73.59C65.4288 73.546 65.5788 73.462 65.7188 73.338C65.8588 73.21 65.9728 73.024 66.0608 72.78C66.1528 72.532 66.1988 72.208 66.1988 71.808L67.1348 72.252C67.1348 72.764 67.0308 73.244 66.8228 73.692C66.6148 74.14 66.3008 74.502 65.8808 74.778C65.4648 75.054 64.9388 75.192 64.3028 75.192ZM66.4028 75V72.852H66.1988V68.52H67.8428V75H66.4028ZM72.6997 75.18C72.0557 75.18 71.5177 75.03 71.0857 74.73C70.6537 74.43 70.3277 74.022 70.1077 73.506C69.8917 72.99 69.7837 72.408 69.7837 71.76C69.7837 71.112 69.8917 70.53 70.1077 70.014C70.3237 69.498 70.6417 69.09 71.0617 68.79C71.4817 68.49 71.9997 68.34 72.6157 68.34C73.2357 68.34 73.7757 68.488 74.2357 68.784C74.6957 69.08 75.0517 69.486 75.3037 70.002C75.5597 70.514 75.6877 71.1 75.6877 71.76C75.6877 72.408 75.5617 72.99 75.3097 73.506C75.0617 74.022 74.7137 74.43 74.2657 74.73C73.8177 75.03 73.2957 75.18 72.6997 75.18ZM69.5077 75V66.36H71.1517V70.56H70.9477V75H69.5077ZM72.4357 73.728C72.7877 73.728 73.0757 73.64 73.2997 73.464C73.5237 73.288 73.6897 73.052 73.7977 72.756C73.9057 72.456 73.9597 72.124 73.9597 71.76C73.9597 71.4 73.9037 71.072 73.7917 70.776C73.6797 70.476 73.5057 70.238 73.2697 70.062C73.0377 69.882 72.7397 69.792 72.3757 69.792C72.0357 69.792 71.7597 69.874 71.5477 70.038C71.3397 70.202 71.1877 70.432 71.0917 70.728C70.9957 71.024 70.9477 71.368 70.9477 71.76C70.9477 72.152 70.9957 72.496 71.0917 72.792C71.1877 73.088 71.3437 73.318 71.5597 73.482C71.7797 73.646 72.0717 73.728 72.4357 73.728ZM84.808 75V71.172C84.808 70.744 84.706 70.412 84.502 70.176C84.302 69.936 84.024 69.816 83.668 69.816C83.44 69.816 83.242 69.87 83.074 69.978C82.906 70.082 82.774 70.23 82.678 70.422C82.586 70.61 82.54 70.828 82.54 71.076L81.856 70.62C81.856 70.176 81.96 69.784 82.168 69.444C82.38 69.104 82.662 68.84 83.014 68.652C83.37 68.46 83.764 68.364 84.196 68.364C84.936 68.364 85.494 68.584 85.87 69.024C86.25 69.46 86.44 70.032 86.44 70.74V75H84.808ZM76.996 75V68.52H78.436V70.668H78.64V75H76.996ZM80.908 75V71.172C80.908 70.744 80.806 70.412 80.602 70.176C80.402 69.936 80.124 69.816 79.768 69.816C79.428 69.816 79.154 69.934 78.946 70.17C78.742 70.402 78.64 70.704 78.64 71.076L77.956 70.596C77.956 70.172 78.062 69.792 78.274 69.456C78.486 69.12 78.77 68.854 79.126 68.658C79.486 68.462 79.888 68.364 80.332 68.364C80.84 68.364 81.256 68.472 81.58 68.688C81.908 68.904 82.15 69.192 82.306 69.552C82.462 69.912 82.54 70.308 82.54 70.74V75H80.908ZM88.1202 67.62V66.18H89.7522V67.62H88.1202ZM88.1202 75V68.52H89.7522V75H88.1202ZM95.4389 75C94.9909 75.084 94.5509 75.12 94.1189 75.108C93.6909 75.1 93.3069 75.026 92.9669 74.886C92.6309 74.742 92.3749 74.512 92.1989 74.196C92.0389 73.9 91.9549 73.6 91.9469 73.296C91.9389 72.988 91.9349 72.64 91.9349 72.252V66.72H93.5669V72.156C93.5669 72.408 93.5689 72.636 93.5729 72.84C93.5809 73.04 93.6229 73.2 93.6989 73.32C93.8429 73.548 94.0729 73.672 94.3889 73.692C94.7049 73.712 95.0549 73.696 95.4389 73.644V75ZM90.8309 69.78V68.52H95.4389V69.78H90.8309Z" fill="white"/>
</g>
<defs>
<clipPath id="clip0_5_47">
<rect x="23" y="18" width="67" height="13" rx="6.5" fill="white"/>
</clipPath>
</defs>
</svg>

<svg xmlns="http://www.w3.org/2000/svg" fill="none" viewBox="0 0 150 100"><path stroke="#AAA" stroke-dasharray="5 5" stroke-linecap="round" stroke-width="2" d="M16 15a4 4 0 0 1 4-4h111a3 3 0 0 1 3 3v72a3 3 0 0 1-3 3H19a3 3 0 0 1-3-3z"/><g clip-path="url(#a)"><rect width="67" height="13" x="23" y="18" fill="#FF9F00" rx="6.5"/><path fill="#fff" d="M28.7 28.5v-7.2h2.33l.35.005q.266.005.51.035.87.105 1.475.605t.92 1.27.315 1.685-.315 1.685-.92 1.27-1.475.605q-.244.03-.51.035l-.35.005zm1.38-1.28h.95q.135 0 .365-.005a3 3 0 0 0 .415-.045 1.32 1.32 0 0 0 .765-.44q.3-.345.44-.83a3.5 3.5 0 0 0 .145-1q0-.54-.15-1.025a2.1 2.1 0 0 0-.445-.82 1.33 1.33 0 0 0-.755-.425 2 2 0 0 0-.415-.045l-.365-.005h-.95zm5.024 1.28 2.2-7.2h2.03l2.2 7.2h-1.4l-1.96-6.35h.26l-1.93 6.35zm1.32-1.5v-1.27h3.8V27zm7.08 1.5v-5.93h-2.27V21.3h5.9v1.27h-2.27v5.93zm3.739 0 2.2-7.2h2.03l2.2 7.2h-1.4l-1.96-6.35h.26l-1.93 6.35zm1.32-1.5v-1.27h3.8V27zm8.008 1.5v-7.2h4.4v1.36h-3.04v1.56h2.44v1.36h-2.44v2.92zm8.393.15q-1.08 0-1.865-.47a3.15 3.15 0 0 1-1.205-1.315q-.42-.844-.42-1.965t.42-1.965a3.15 3.15 0 0 1 1.205-1.315q.785-.47 1.865-.47c1.08 0 1.34.157 1.86.47a3.1 3.1 0 0 1 1.205 1.315q.425.845.425 1.965t-.425 1.965a3.1 3.1 0 0 1-1.205 1.315q-.78.47-1.86.47m0-1.28q.686.01 1.14-.295a1.83 1.83 0 0 0 .68-.865q.23-.56.23-1.31c0-.75-.077-.933-.23-1.3a1.84 1.84 0 0 0-.68-.855q-.454-.304-1.14-.315-.686-.01-1.14.295a1.86 1.86 0 0 0-.685.865q-.225.56-.225 1.31c0 .75.075.933.225 1.3q.23.55.685.855.454.305 1.14.315m4.488 1.13v-7.2h3.04q.105 0 .28.01.18.005.32.03.645.1 1.055.425.415.325.61.82.195.49.195 1.095 0 .905-.45 1.55-.45.64-1.41.79l-.6.04h-1.68v2.44zm4.06 0-1.42-2.93 1.4-.27 1.56 3.2zm-2.7-3.71h1.62q.105 0 .23-.01t.23-.04a.83.83 0 0 0 .425-.25q.15-.18.205-.395.06-.22.06-.415c0-.195-.02-.267-.06-.41a.96.96 0 0 0-.205-.395.8.8 0 0 0-.425-.255 1.2 1.2 0 0 0-.23-.04 3 3 0 0 0-.23-.01h-1.62zm5.34 3.71v-7.2h1.22l2.38 4.78 2.38-4.78h1.22v7.2h-1.27v-4.3l-2.09 4.3h-.48l-2.09-4.3v4.3z"/></g><g fill="#AAA" opacity=".75"><path d="M124.8 61H26a2 2 0 0 0-2 2v15.92a2 2 0 0 0 2 2h98.8a2 2 0 0 0 2-2V63a2 2 0 0 0-2-2"/><path d="M124.8 62c.55 0 1 .45 1 1v15.92c0 .55-.45 1-1 1H26c-.55 0-1-.45-1-1V63c0-.55.45-1 1-1zm0-2H26c-1.66 0-3 1.34-3 3v15.92c0 1.66 1.34 3 3 3h98.8c1.66 0 3-1.34 3-3V63c0-1.66-1.34-3-3-3"/></g><path fill="#fff" d="M57.104 75.18q-.96 0-1.734-.336a3.3 3.3 0 0 1-1.266-.972 3.2 3.2 0 0 1-.624-1.512l1.704-.252q.18.744.744 1.146t1.284.402q.402 0 .78-.126t.618-.372a.82.82 0 0 0 .246-.606.8.8 0 0 0-.042-.252.6.6 0 0 0-.126-.234 1 1 0 0 0-.258-.204 2 2 0 0 0-.414-.174l-2.244-.66a7 7 0 0 1-.588-.204 2.6 2.6 0 0 1-.642-.378 2 2 0 0 1-.522-.648q-.204-.408-.204-1.026 0-.87.438-1.446t1.17-.858a4.4 4.4 0 0 1 1.62-.276q.894.012 1.596.306t1.176.858q.474.558.684 1.368l-1.764.3a1.56 1.56 0 0 0-.354-.708 1.7 1.7 0 0 0-.618-.438 2 2 0 0 0-.744-.162 2 2 0 0 0-.726.108 1.4 1.4 0 0 0-.552.336.74.74 0 0 0-.21.528q0 .282.174.462.174.174.438.282t.54.18l1.5.408q.336.09.744.24.408.144.78.408.378.258.618.684.246.426.246 1.08 0 .696-.294 1.218-.288.516-.78.858-.492.336-1.116.504a5 5 0 0 1-1.278.168m7.199.012q-.762 0-1.242-.258t-.75-.654a2.8 2.8 0 0 1-.378-.822 4 4 0 0 1-.138-.786 9 9 0 0 1-.024-.516V68.52h1.656v3.06q0 .222.024.57.024.342.15.69t.408.582q.288.234.81.234.21 0 .45-.066t.45-.252q.21-.192.342-.558.138-.372.138-.972l.936.444q0 .768-.312 1.44t-.942 1.086q-.624.414-1.578.414m2.1-.192v-2.148h-.204V68.52h1.644V75zm6.297.18q-.966 0-1.614-.45a2.8 2.8 0 0 1-.978-1.224q-.324-.774-.324-1.746t.324-1.746.954-1.224 1.554-.45q.93 0 1.62.444t1.068 1.218q.384.768.384 1.758 0 .972-.378 1.746a3 3 0 0 1-1.044 1.224q-.672.45-1.566.45M69.508 75v-8.64h1.644v4.2h-.204V75zm2.928-1.272q.528 0 .864-.264t.498-.708q.162-.45.162-.996 0-.54-.168-.984a1.54 1.54 0 0 0-.522-.714q-.348-.27-.894-.27-.51 0-.828.246a1.4 1.4 0 0 0-.456.69 3.4 3.4 0 0 0-.144 1.032q0 .588.144 1.032t.468.69q.33.246.876.246M84.808 75v-3.828q0-.642-.306-.996-.3-.36-.834-.36-.342 0-.594.162-.252.156-.396.444a1.5 1.5 0 0 0-.138.654l-.684-.456q0-.666.312-1.176.318-.51.846-.792a2.45 2.45 0 0 1 1.182-.288q1.11 0 1.674.66.57.654.57 1.716V75zm-7.812 0v-6.48h1.44v2.148h.204V75zm3.912 0v-3.828q0-.642-.306-.996-.3-.36-.834-.36-.51 0-.822.354-.306.348-.306.906l-.684-.48q0-.636.318-1.14t.852-.798a2.5 2.5 0 0 1 1.206-.294q.762 0 1.248.324.492.324.726.864t.234 1.188V75zm7.212-7.38v-1.44h1.632v1.44zm0 7.38v-6.48h1.632V75zm7.319 0q-.672.126-1.32.108a3.2 3.2 0 0 1-1.152-.222 1.56 1.56 0 0 1-.768-.69 2 2 0 0 1-.252-.9 41 41 0 0 1-.012-1.044V66.72h1.632v5.436q0 .378.006.684.012.3.126.48.216.342.69.372t1.05-.048zm-4.608-5.22v-1.26h4.608v1.26z"/><defs><clipPath id="a"><rect width="67" height="13" x="23" y="18" fill="#fff" rx="6.5"/></clipPath></defs></svg>
